images/santiment.svg

<svg height="250" viewBox="0 0 250 250" width="250" xmlns="http://www.w3.org/2000/svg"><path d="m396.999437 202.801688c0 107.583937-87.213499 194.797437-194.797437 194.797437-107.583937 0-194.80375-87.2135-194.80375-194.797437 0-107.583938 87.219813-194.80375 194.80375-194.80375 107.583938 0 194.797437 87.219812 194.797437 194.80375zm0 0" fill="#fff" stroke="#231f20" stroke-miterlimit="10" stroke-width="4.6684" transform="scale(.618812)"/><path d="m163.803063 259.79725c4.494499 2.70175 9.797 5.005813 15.995875 6.905875 6.198875 1.89375 12.49875 2.897438 19.000625 2.897438 7.39825 0 13.698125-1.900063 18.798625-5.599188 5.2015-3.699125 7.70125-9.702312 7.70125-18.10425 0-6.99425-1.597063-12.694437-4.6965-17.19525-3.10575-4.500812-7.101563-8.603937-11.905375-12.202062-4.7975-3.598125-9.999-6.899563-15.598188-9.898-5.599187-3.00475-10.800688-6.602875-15.598187-10.901688-4.803813-4.197812-8.799625-9.298312-11.899063-15.0995-3.099437-5.801187-4.702812-13.199437-4.702812-22.100062 0-14.297813 3.901125-25.098501 11.602375-32.301063 7.70125-7.29725 18.697625-10.901687 32.79975-10.901687 9.197312 0 17.100562.801687 23.899125 2.49975 6.697562 1.704375 12.49875 4.002125 17.49825 6.899562l-6.400875 20.2c-4.298813-2.19675-9.197313-4.096812-14.7965-5.498187-5.599188-1.496063-11.299375-2.19675-17.100563-2.19675-8.098937 0-13.900125 1.698062-17.59925 4.9995-3.699125 3.396125-5.5045 8.597625-5.5045 15.800187 0 5.599188 1.603375 10.396687 4.702813 14.297813 3.099437 3.901125 7.101562 7.49925 11.899062 10.800687 4.803813 3.301438 9.999 6.596563 15.598188 9.898 5.6055 3.402438 10.800687 7.303563 15.6045 11.899063 4.7975 4.601812 8.799625 10.1 11.899062 16.500875 3.099438 6.400875 4.6965 14.398812 4.6965 24.000125 0 6.299875-.997375 12.202062-2.998437 17.80125-2.001063 5.599187-5.1005 10.497687-9.197313 14.600812-4.103125 4.096812-9.304625 7.49925-15.5035 9.898-6.198875 2.49975-13.395125 3.699125-21.696062 3.699125-9.904313 0-18.400938-.997375-25.5025-2.897437-7.202563-1.900063-13.199438-4.399813-18.198938-7.60025zm0 0" stroke="#231f20" stroke-miterlimit="10" stroke-width="4.6684" transform="scale(.618812)"/><path d="m70.296875 123.949219c0 7.074219-5.734375 12.808593-12.808594 12.808593s-12.808593-5.734374-12.808593-12.808593 5.734374-12.8125 12.808593-12.8125 12.808594 5.738281 12.808594 12.8125zm0 0"/><path d="m207.984375 123.949219c0 7.074219-5.738281 12.808593-12.8125 12.808593s-12.808594-5.734374-12.808594-12.808593 5.734375-12.8125 12.808594-12.8125 12.8125 5.738281 12.8125 12.8125zm0 0"/></svg>

<!-- Generator: Adobe Illustrator 22.0.1, SVG Export Plug-In . SVG Version: 6.00 Build 0)  -->
<svg xmlns="http://www.w3.org/2000/svg" xmlns:xlink="http://www.w3.org/1999/xlink" width="250px" height="250px" viewBox="0 0 250 250" version="1.1">
<g id="surface1">
<path style="fill-rule:nonzero;fill:rgb(100%,100%,100%);fill-opacity:1;stroke-width:4.6684;stroke-linecap:butt;stroke-linejoin:miter;stroke:rgb(13.725491%,12.156863%,12.54902%);stroke-opacity:1;stroke-miterlimit:10;" d="M 396.999437 202.801688 C 396.999437 310.385625 309.785938 397.599125 202.202 397.599125 C 94.618063 397.599125 7.39825 310.385625 7.39825 202.801688 C 7.39825 95.21775 94.618063 7.997938 202.202 7.997938 C 309.785938 7.997938 396.999437 95.21775 396.999437 202.801688 Z M 396.999437 202.801688 " transform="matrix(0.618812,0,0,0.618812,0,0)"/>
<path style="fill-rule:nonzero;fill:rgb(0%,0%,0%);fill-opacity:1;stroke-width:4.6684;stroke-linecap:butt;stroke-linejoin:miter;stroke:rgb(13.725491%,12.156863%,12.54902%);stroke-opacity:1;stroke-miterlimit:10;" d="M 163.803063 259.79725 C 168.297562 262.499 173.600063 264.803063 179.798938 266.703125 C 185.997813 268.596875 192.297688 269.600563 198.799563 269.600563 C 206.197813 269.600563 212.497688 267.7005 217.598188 264.001375 C 222.799688 260.30225 225.299438 254.299063 225.299438 245.897125 C 225.299438 238.902875 223.702375 233.202688 220.602938 228.701875 C 217.497188 224.201063 213.501375 220.097938 208.697563 216.499813 C 203.900063 212.901688 198.698563 209.60025 193.099375 206.601813 C 187.500188 203.597063 182.298687 199.998938 177.501188 195.700125 C 172.697375 191.502313 168.701563 186.401813 165.602125 180.600625 C 162.502688 174.799438 160.899313 167.401188 160.899313 158.500563 C 160.899313 144.20275 164.800438 133.402062 172.501688 126.1995 C 180.202938 118.90225 191.199313 115.297813 205.301438 115.297813 C 214.49875 115.297813 222.402 116.0995 229.200563 117.797563 C 235.898125 119.501938 241.699313 121.799688 246.698813 124.697125 L 240.297938 144.897125 C 235.999125 142.700375 231.100625 140.800313 225.501438 139.398938 C 219.90225 137.902875 214.202063 137.202188 208.400875 137.202188 C 200.301938 137.202188 194.50075 138.90025 190.801625 142.201688 C 187.1025 145.597813 185.297125 150.799313 185.297125 158.001875 C 185.297125 163.601063 186.9005 168.398562 189.999938 172.299688 C 193.099375 176.200813 197.1015 179.798938 201.899 183.100375 C 206.702813 186.401813 211.898 189.696938 217.497188 192.998375 C 223.102688 196.400813 228.297875 200.301938 233.101688 204.897438 C 237.899188 209.49925 241.901313 214.997438 245.00075 221.398313 C 248.100188 227.799188 249.69725 235.797125 249.69725 245.398438 C 249.69725 251.698313 248.699875 257.6005 246.698813 263.199688 C 244.69775 268.798875 241.598313 273.697375 237.5015 277.8005 C 233.398375 281.897312 228.196875 285.29975 221.998 287.6985 C 215.799125 290.19825 208.602875 291.397625 200.301938 291.397625 C 190.397625 291.397625 181.901 290.40025 174.799438 288.500188 C 167.596875 286.600125 161.6 284.100375 156.6005 280.899938 Z M 163.803063 259.79725 " transform="matrix(0.618812,0,0,0.618812,0,0)"/>
<path style=" stroke:none;fill-rule:nonzero;fill:rgb(0%,0%,0%);fill-opacity:1;" d="M 70.296875 123.949219 C 70.296875 131.023438 64.5625 136.757812 57.488281 136.757812 C 50.414062 136.757812 44.679688 131.023438 44.679688 123.949219 C 44.679688 116.875 50.414062 111.136719 57.488281 111.136719 C 64.5625 111.136719 70.296875 116.875 70.296875 123.949219 Z M 70.296875 123.949219 "/>
<path style=" stroke:none;fill-rule:nonzero;fill:rgb(0%,0%,0%);fill-opacity:1;" d="M 207.984375 123.949219 C 207.984375 131.023438 202.246094 136.757812 195.171875 136.757812 C 188.097656 136.757812 182.363281 131.023438 182.363281 123.949219 C 182.363281 116.875 188.097656 111.136719 195.171875 111.136719 C 202.246094 111.136719 207.984375 116.875 207.984375 123.949219 Z M 207.984375 123.949219 "/>
</g>
</svg>
